X: 32906
T: Potlick, The
R: reel
M: 4/4
K: Gmajor
|:DGGA BGAF|DGGA BGAF|DGGA B3c|1 defd cAFD:|2 defd cAFA||
|:g3b agfg|abag fefg|abag faeA|dfde fdcA:|
|:d2dc B2B2|dedG cAA2|d2dc B4|defd cAFA:|
|:G3B A3c|B3B cAFA|G2GB A2Bc|1 defd cAFA:|2 defd cAFA||

